X: 2
T: The Road To Skye
R: jig
M: 6/8
L: 1/8
K: Gmaj
D|GFG EGD|GBd e2d|gBB BAB|cBc E2F|GFG EGD|GBd e2d|gBB BAB|cEF G2:|:D|GBd GBd|GBd cAF|GBd efg|fdd def|g3 f3|efe d2B|cBc ABc|BGG G2:||


Tune 1709	Setting 15132

